X:1
T:Title
%%score { ( 1 4 ) | ( 2 3 ) }
L:1/8
Q:1/4=100
M:4/4
K:D
V:1 treble nm="Grand Piano"
V:4 treble 
V:2 bass 
V:3 bass 
V:1
 [FA]2 [=F^G]>[^FA] [Fd]2 [DF]>[GB] | [FA]2[K:bass] [F,D]2 [A,DF]4 | %2
w: J.~H.~Entwisle * * * * *||
 [A,CE]2 [G,CE]>[G,CE] [F,D]2[K:treble] [A,CE]2 | F4 A4 | [FA]2 [=F^G]>[^FA] [Fd]2 [DF]>[GB] | %5
w: |||
 [FA]2 D2 F4 | [CE]2 [DF]>[EG] [DF]2 z G, | D6 z2 | [CE]>[DF] [EG]>[FA] [EG]2 [CE]2 | %9
w: ||||
 [DF]>[EG] [FA]>[GB] [FA]2 [Fd]2 | c>c e>d c2 z D | A4 z4 | [A,DF]>[A,EG] [FA]>[GB] [FA]2 [Fd]2 | %13
w: ||||
 e2 d2 B4 | A>B A>G [DF]2 z G, | D8 |] %16
w: |||
V:2
 [D,D]2 [D,D]>[D,D] [D,A,]2 [D,A,]>[D,D] | [D,D]2 D,2 D,4 | A,,2 A,,>A,, B,,2 A,,2 | [A,D]4 [DF]4 | %4
 [D,D]2 [D,D]>[D,D] [D,A,]2 [D,A,]>[D,D] | [D,D]2 [D,F,]2 [D,A,D]4 | %6
 [A,,A,]2 [A,,A,]>[A,,A,] [A,,A,]2 .[A,,A,]2 | [D,F,]6 z2 | %8
 [A,,A,]>[A,,A,] [A,,A,]>[A,,A,] [A,,A,]2 [A,,A,]2 | [D,A,]>[D,A,] [D,D]>[D,D] [D,D]2 [D,A,]2 | %10
 [E,A,E]>[E,A,E] [E,CE]>[E,B,E] [E,A,E]2 .[E,^G,E]2 | z4 G4 | D,>D, [D,D]>[D,D] [D,D]2 [D,A,]2 | %13
 [G,B,G]2 [G,B,G]2 [G,DG]4 | [A,DF]>[A,DF] [A,F]>[K:bass][A,E] [A,,A,]2 .[A,,A,]2 | [D,F,]8 |] %16
V:3
 x8 | x8 | x8 | D,8 | x8 | x8 | x8 | x8 | x8 | x8 | x8 | A,,8 | x8 | x8 | x7/2[K:bass] x9/2 | x8 |] %16
V:4
 x8 | x2[K:bass] x6 | x6[K:treble] x2 | x8 | x8 | x8 | z4 z2 [CE]2 | x8 | x8 | x8 | z4 z2 B2 | %11
 [A,C]8 | x8 | x8 | z4 z2 [CE]2 | x8 |] %16

